X:368
T:Paddy Carrey's
M:6/8
L:1/8
K:G
D2G GFG | B2G GFG | E2A A2B | cAG FED |
D2G GFG | B2G G2z | FED DEF | GAB A2G :|
G2B c2e | d2e dBG | G2B c2e | dBG A2z |
G2B c2e | d2e dBG | G3BAG |[1 FDF G2z :|[2 FDF G2B ||
c2A AGA | B2G GFG | F2G A2B | c2A F2D |
c2A AGA | B2G GFG | FED DEF | GAB A2G :|
